Newaita/actions/24/format-text-strikethrough.svg

<?xml version="1.0" encoding="UTF-8"?>
<svg xmlns="http://www.w3.org/2000/svg" xmlns:xlink="http://www.w3.org/1999/xlink" width="24pt" height="24pt" viewBox="0 0 24 24" version="1.1">
<g id="surface1">
<path style=" stroke:none;fill-rule:nonzero;fill:rgb(25.882354%,25.882354%,25.882354%);fill-opacity:1;" d="M 11.90625 3.164062 C 9.695312 3.164062 7.773438 4.058594 6.746094 5.394531 L 8.394531 6.425781 C 9.023438 5.664062 10.230469 5.148438 11.621094 5.148438 L 12.195312 5.148438 C 14.234375 5.148438 15.875 6.253906 15.875 7.628906 L 15.875 8.621094 L 17.859375 8.621094 L 17.859375 7.628906 C 17.859375 5.15625 15.207031 3.164062 11.90625 3.164062 Z M 6.0625 13.085938 C 5.992188 13.363281 5.953125 13.648438 5.953125 13.941406 L 5.953125 14.4375 L 5.988281 14.4375 C 6.316406 16.675781 8.832031 18.40625 11.90625 18.40625 C 13.433594 18.40625 14.824219 17.976562 15.875 17.273438 L 15.875 18.296875 L 17.859375 18.296875 L 17.859375 13.085938 L 15.65625 13.085938 C 15.796875 13.351562 15.875 13.640625 15.875 13.941406 C 15.875 15.3125 14.234375 16.421875 12.195312 16.421875 L 11.621094 16.421875 C 9.582031 16.421875 7.9375 15.3125 7.9375 13.941406 C 7.9375 13.640625 8.015625 13.351562 8.160156 13.085938 Z M 6.0625 13.085938 "/>
<path style=" stroke:none;fill-rule:nonzero;fill:rgb(25.882354%,64.705884%,96.078432%);fill-opacity:1;" d="M 3.761719 9.613281 C 3.601562 9.613281 3.472656 9.796875 3.472656 10.027344 L 3.472656 11.683594 C 3.472656 11.910156 3.601562 12.09375 3.761719 12.09375 L 20.550781 12.09375 C 20.710938 12.09375 20.839844 11.910156 20.839844 11.683594 L 20.839844 10.027344 C 20.839844 9.796875 20.710938 9.613281 20.550781 9.613281 Z M 3.761719 9.613281 "/>
</g>
</svg>

<svg xmlns="http://www.w3.org/2000/svg" width="32" height="32" viewBox="0 0 24 24"><path d="M11.906 3.164c-2.21 0-4.133.895-5.16 2.23l1.649 1.032c.628-.762 1.835-1.278 3.226-1.278h.574c2.04 0 3.68 1.106 3.68 2.48v.993h1.984V7.63c0-2.473-2.652-4.465-5.953-4.465zm-5.844 9.922a3.47 3.47 0 0 0-.109.855v.496h.035c.328 2.239 2.844 3.97 5.918 3.97 1.528 0 2.918-.43 3.969-1.134v1.024h1.984v-5.211h-2.203c.14.266.219.555.219.855 0 1.371-1.64 2.48-3.68 2.48h-.574c-2.039 0-3.684-1.108-3.684-2.48 0-.3.079-.59.223-.855zm0 0" fill="#78909c"/><path d="M3.762 9.613c-.16 0-.29.184-.29.414v1.657c0 .226.13.41.29.41H20.55c.16 0 .289-.184.289-.41v-1.657c0-.23-.13-.414-.29-.414zm0 0" fill="#42a5f5"/></svg>
